frontend/public/svg/weather/Vector.svg

<svg width="161" height="101" viewBox="0 0 161 101" fill="none" xmlns="http://www.w3.org/2000/svg">
<g clip-path="url(#clip0)">
<path d="M99.7952 38.28C101.166 37.3217 102.244 36.5378 103.353 35.7988C114.545 28.3369 126.628 26.837 139.368 30.7449C154.82 35.4836 161.17 50.7239 159.846 63.0099C158.727 73.4256 153.605 81.8379 146.081 88.8515C143.155 91.5799 139.39 93.0895 135.548 93.862C128.537 95.2712 121.473 96.5399 114.373 97.3544C96.2819 99.4304 78.0777 99.3293 59.9043 99.6207C51.3601 99.7579 42.8396 99.5997 34.4962 97.4541C32.0021 96.8142 29.5259 96.0922 27.106 95.2265C13.6458 90.4097 6.08279 80.3578 2.74203 66.9318C-0.393956 54.3302 0.34632 41.7758 6.5054 30.2584C15.4638 13.506 29.3714 2.66013 48.6107 1.10329C65.9229 -0.297333 80.4005 6.38839 91.0896 20.4813C95.0735 25.7313 97.7973 31.586 99.7952 38.28ZM64.0904 89.6424C68.4656 89.4652 72.8447 89.3602 77.2172 89.0976C91.7833 88.2227 106.34 87.1398 120.914 86.4578C126.295 86.196 131.546 84.7107 136.266 82.1149C144.544 77.6898 148.643 70.6572 149.115 61.4402C149.64 51.1876 144.168 42.832 134.92 40.3182C124.32 37.4362 114.41 39.0058 105.855 46.2958C103.303 48.4702 101.11 51.0627 98.7248 53.436C97.9883 54.2735 97.1423 55.0072 96.2084 55.6165C93.8134 56.9377 91.2117 55.9444 90.0427 53.4693C89.7316 52.8114 89.5642 52.0952 89.5511 51.3676C89.538 50.6401 89.6791 49.918 89.9659 49.2493C91.3226 45.5941 90.8001 41.9864 89.5833 38.3877C87.7843 33.3024 85.0887 28.5807 81.6232 24.4469C70.8186 11.0891 49.5211 6.84961 34.892 15.0472C14.4051 26.5332 6.8663 44.8707 11.9371 65.9641C14.3446 75.9834 20.2726 83.2621 30.438 86.4231C33.5393 87.3853 36.6986 88.1499 39.8966 88.7117C47.9085 90.1248 56.0017 89.8505 64.0897 89.6417L64.0904 89.6424Z" fill="black"/>
</g>
<defs>
<clipPath id="clip0">
<rect width="159.49" height="99.107" fill="white" transform="translate(0.791504 0.904297)"/>
</clipPath>
</defs>
</svg>

<svg xmlns="http://www.w3.org/2000/svg" width="161" height="101" fill="none" viewBox="0 0 161 101"><g clip-path="url(#a)"><path fill="#000" d="M99.795 38.28c1.371-.958 2.449-1.742 3.558-2.481 11.192-7.462 23.275-8.962 36.015-5.054 15.452 4.739 21.802 19.979 20.478 32.265-1.119 10.416-6.241 18.828-13.765 25.842-2.926 2.728-6.691 4.237-10.533 5.01-7.011 1.41-14.075 2.678-21.175 3.492-18.091 2.076-36.295 1.975-54.469 2.267-8.544.137-17.064-.021-25.408-2.167-2.494-.64-4.97-1.362-7.39-2.227-13.46-4.817-21.023-14.87-24.364-28.295C-.394 54.33.346 41.776 6.505 30.258 15.464 13.506 29.371 2.66 48.611 1.103 65.923-.297 80.4 6.388 91.09 20.481c3.983 5.25 6.707 11.105 8.705 17.799M64.09 89.642c4.376-.177 8.755-.282 13.127-.544 14.566-.875 29.123-1.958 43.697-2.64a35.4 35.4 0 0 0 15.352-4.343c8.278-4.425 12.377-11.458 12.849-20.675.525-10.252-4.947-18.608-14.195-21.122-10.6-2.882-20.51-1.312-29.065 5.978-2.552 2.174-4.745 4.767-7.13 7.14a12.3 12.3 0 0 1-2.517 2.18c-2.395 1.322-4.996.328-6.165-2.147a5.13 5.13 0 0 1-.077-4.22c1.357-3.655.834-7.263-.383-10.861a45.1 45.1 0 0 0-7.96-13.941C70.82 11.089 49.521 6.85 34.892 15.047 14.405 26.533 6.866 44.871 11.937 65.964c2.408 10.02 8.336 17.298 18.501 20.46a77 77 0 0 0 9.459 2.288c8.011 1.413 16.105 1.138 24.193.93"/></g><defs><clipPath id="a"><path fill="#fff" d="M.792.904h159.49v99.107H.792z"/></clipPath></defs></svg>
